public/svg/broke-heart.svg

<svg width="76" height="44" viewBox="0 0 76 44" fill="none" xmlns="http://www.w3.org/2000/svg">
<path d="M75.0086 19.6862C73.5509 18.9178 72.1735 18.0059 70.8968 16.9641C70.9872 16.7696 70.999 16.5477 70.9295 16.3448C70.8601 16.1418 70.7149 15.9736 70.5243 15.8753C71.2542 14.2216 72.346 12.7528 73.7192 11.5772C73.8029 11.4908 73.8631 11.3842 73.8938 11.2678C73.9245 11.1514 73.9248 11.0291 73.8946 10.9125C73.8644 10.796 73.8047 10.6892 73.7213 10.6024C73.6379 10.5155 73.5335 10.4516 73.4183 10.4168C72.5549 10.2058 71.6571 10.1769 70.7819 10.3319C69.9067 10.4869 69.0734 10.8223 68.3349 11.3168C67.5965 11.8114 66.969 12.4543 66.4925 13.2045C66.016 13.9548 65.7009 14.796 65.5672 15.6747H62.5013C62.9388 13.7739 62.8346 11.7885 62.2004 9.94399C58.2606 -1.08762 43.2605 -0.0847444 37.4295 8.3967C36.2274 5.72095 34.2277 3.48218 31.704 1.98696C29.1804 0.491745 26.2562 -0.186817 23.332 0.0441966C18.246 0.545633 13.3032 3.79781 12.243 9.05573C11.8576 11.3123 12.0297 13.6288 12.7445 15.8036C10.925 15.8036 9.09116 15.9326 7.28599 16.0472C7.21242 16.0512 7.14037 16.0697 7.07398 16.1017C7.00759 16.1336 6.94818 16.1784 6.89917 16.2334C6.89917 15.3165 6.89917 14.4139 6.98513 13.5113C6.98532 13.3894 6.95721 13.2691 6.90301 13.1599C6.84882 13.0507 6.77002 12.9555 6.67281 12.8819C6.5756 12.8083 6.46264 12.7583 6.34281 12.7357C6.22299 12.7132 6.09956 12.7188 5.98226 12.752C4.06899 13.3803 2.20196 14.1414 0.394822 15.03C0.289343 15.0907 0.199365 15.175 0.131944 15.2764C0.0645225 15.3777 0.0214911 15.4933 0.00622396 15.614C-0.00904322 15.7348 0.00386884 15.8574 0.0439476 15.9723C0.0840264 16.0873 0.150182 16.1913 0.237228 16.2764C1.74713 17.7513 3.58256 18.8505 5.59543 19.4856C5.73486 19.5326 5.88582 19.5326 6.02524 19.4856C6.08646 19.5077 6.15189 19.5156 6.2166 19.5086C6.28131 19.5017 6.3436 19.4802 6.39879 19.4457C6.45397 19.4113 6.5006 19.3647 6.53516 19.3095C6.56973 19.2544 6.59132 19.1921 6.59831 19.1274C6.71292 18.4111 6.78456 17.6948 6.84186 16.9498C6.88797 17.0269 6.95292 17.091 7.03061 17.1361C7.1083 17.1812 7.19618 17.2058 7.28599 17.2077C9.27741 17.3366 11.2832 17.4082 13.2889 17.4655C14.9385 21.257 17.077 24.8163 19.65 28.053C24.1188 34.3513 29.7856 39.7066 36.3263 43.8124C36.4256 43.8722 36.54 43.9021 36.6558 43.8984C36.7946 43.9776 36.9546 44.0118 37.1136 43.9964C37.2727 43.981 37.423 43.9167 37.5441 43.8124C44.2633 38.7837 51.0542 33.5975 56.2835 26.9642C58.6116 24.2065 60.4967 21.1035 61.8709 17.7664H65.6819C65.6788 17.8045 65.6788 17.8429 65.6819 17.881C66.5459 19.4805 67.9858 20.6917 69.7097 21.269C71.4336 21.8463 73.3125 21.7465 74.9656 20.9899C75.1115 20.9576 75.2425 20.8776 75.3379 20.7626C75.4334 20.6476 75.4879 20.5041 75.4928 20.3547C75.4977 20.2054 75.4528 20.0586 75.3651 19.9376C75.2775 19.8165 75.152 19.7281 75.0086 19.6862ZM2.31461 15.8896C3.32703 15.4311 4.35378 15.0157 5.39486 14.6432C5.39486 15.7177 5.39486 16.7922 5.39486 17.8524C4.39199 17.2363 3.33181 16.6059 2.31461 15.8896ZM60.381 15.5457C56.3981 15.5457 52.4153 15.6604 48.4611 15.818C48.5237 15.1087 48.4803 14.394 48.3321 13.6976C48.1316 12.752 46.7562 13.1675 46.8995 14.0844C47.0308 14.9102 47.0308 15.7515 46.8995 16.5773C46.7608 17.443 46.4697 18.2773 46.0399 19.0415C45.696 19.6575 46.5556 20.116 46.9711 19.5859C47.4869 18.9153 47.8798 18.1586 48.1316 17.3509C51.9282 17.5085 55.7677 17.6231 59.593 17.6375C59.2348 18.4541 58.8193 19.2707 58.3752 20.073C53.3322 29.2421 44.6215 35.7035 36.4982 41.9356C29.5498 36.0473 23.1027 30.0444 18.2746 22.1934C17.3208 20.683 16.4826 19.1025 15.7674 17.4655C19.3061 17.4655 22.8448 17.4655 26.3549 17.3509C26.4167 17.3587 26.4793 17.3587 26.5412 17.3509C26.7136 18.1994 27.0761 18.9978 27.6013 19.6862C27.9882 20.1876 28.6042 19.5429 28.4036 19.0701C27.8196 17.7481 27.7133 16.2642 28.1028 14.8724C28.1541 14.6824 28.1278 14.4798 28.0297 14.3092C27.9317 14.1386 27.7698 14.0139 27.5798 13.9626C27.3899 13.9113 27.1873 13.9376 27.0167 14.0357C26.8461 14.1338 26.7214 14.2956 26.6701 14.4856C26.5057 14.9467 26.4092 15.4293 26.3836 15.9182H26.2976C22.587 15.7893 18.819 15.7607 15.0797 15.818C13.5325 11.1474 13.6471 6.23336 19.0912 3.368C25.5813 -0.0704177 32.716 3.22474 35.8535 9.4139C35.9323 9.588 36.0715 9.72758 36.2455 9.80664C36.4194 9.88571 36.6162 9.89888 36.7991 9.8437C36.8322 9.93855 36.8897 10.023 36.9658 10.0887C37.0419 10.1543 37.1338 10.1988 37.2325 10.2176C37.3312 10.2365 37.4331 10.2291 37.528 10.1962C37.623 10.1632 37.7076 10.1059 37.7733 10.0299C40.8966 6.09009 45.4381 3.21041 50.6674 3.61156C52.5391 3.74132 54.3495 4.3326 55.937 5.33258C57.5245 6.33257 58.8396 7.71013 59.7649 9.34226C60.7631 11.2531 60.9839 13.4759 60.381 15.5457ZM71.7564 11.5772C70.7422 12.7637 69.999 14.1571 69.5787 15.6604C69.5758 15.6889 69.5758 15.7177 69.5787 15.7463L67.0142 15.646C67.228 14.5327 67.8137 13.5251 68.6753 12.7884C69.537 12.0517 70.6234 11.6297 71.7564 11.5916V11.5772ZM67.3438 17.5658L70.0372 17.4655C70.946 18.4569 71.9651 19.3413 73.0745 20.1017C71.9786 20.2445 70.8645 20.0836 69.8539 19.6364C68.8433 19.1892 67.975 18.4729 67.3438 17.5658Z" fill="white"/>
<path d="M56.9988 8.44028C56.2847 7.55907 55.4003 6.83085 54.3985 6.29915C53.3966 5.76745 52.2978 5.44317 51.1678 5.3457C50.7953 5.3457 50.7237 5.91877 51.0818 5.99041C53.1172 6.43667 54.929 7.58872 56.1965 9.24258C56.655 9.82998 57.4572 9.01335 56.9988 8.44028Z" fill="white"/>
<path d="M53.0163 7.76687C52.4521 7.39932 51.8332 7.12368 51.1825 6.95025C50.4375 6.67804 49.7498 6.36285 48.9475 6.13362C48.8696 6.10132 48.7821 6.10129 48.7042 6.13353C48.6263 6.16577 48.5644 6.22765 48.5321 6.30554C48.4998 6.38344 48.4997 6.47097 48.532 6.54889C48.5642 6.6268 48.6261 6.68872 48.704 6.72102C49.3917 7.10784 50.1367 7.42303 50.8387 7.76687C51.4198 8.11833 52.0534 8.37467 52.7155 8.52619C52.8024 8.52386 52.8868 8.49605 52.9581 8.44621C53.0294 8.39637 53.0844 8.32669 53.1165 8.24582C53.1485 8.16495 53.1561 8.07645 53.1383 7.99131C53.1205 7.90616 53.0781 7.82812 53.0163 7.76687Z" fill="white"/>
<path d="M34.0626 37.1943C32.3309 35.6936 30.6764 34.1061 29.1056 32.4378C28.9193 32.2515 28.5611 32.4378 28.7187 32.7387C30.1033 34.6021 31.652 36.3378 33.3463 37.9249C33.8047 38.3977 34.564 37.5954 34.0626 37.1943Z" fill="white"/>
<path d="M36.0999 36.706C34.8821 35.4739 33.5068 34.3707 32.2747 33.153C32.0168 32.8951 31.5297 33.2389 31.7589 33.5541C32.7642 35.0225 33.9481 36.3604 35.2833 37.5369C35.8277 37.9954 36.63 37.2934 36.0999 36.706Z" fill="white"/>
</svg>

<svg xmlns="http://www.w3.org/2000/svg" width="76" height="44" fill="#fff" xmlns:v="https://vecta.io/nano"><path d="M75 19.686a24.78 24.78 0 0 1-4.112-2.722.83.83 0 0 0-.373-1.089 12.08 12.08 0 0 1 3.195-4.298.7.7 0 0 0-.301-1.161 6.4 6.4 0 0 0-2.636-.085c-.875.155-1.708.5-2.447.985a6.27 6.27 0 0 0-1.842 1.888 6.41 6.41 0 0 0-.925 2.47H62.5a10.43 10.43 0 0 0-.301-5.731C58.26-1.088 43.26-.085 37.43 8.397c-1.202-2.676-3.202-4.915-5.725-6.4S26.256-.187 23.332.044c-5.086.5-10.03 3.754-11.1 9.012a14.04 14.04 0 0 0 .502 6.748c-1.82 0-3.653.13-5.46.244a.56.56 0 0 0-.387.186c0-.917 0-1.82.086-2.722a.79.79 0 0 0-1.003-.759 43.27 43.27 0 0 0-5.587 2.278c-.105.06-.195.145-.263.246a.79.79 0 0 0-.088.696.79.79 0 0 0 .193.304c1.5 1.475 3.345 2.574 5.358 3.2.14.047.3.047.43 0a.43.43 0 0 0 .574-.358 26.62 26.62 0 0 0 .244-2.178.53.53 0 0 0 .444.258c2 .13 3.997.2 6.003.258a47.41 47.41 0 0 0 6.361 10.588 58.74 58.74 0 0 0 16.676 15.759.6.6 0 0 0 .329.086c.14.08.3.113.458.098a.77.77 0 0 0 .43-.184c6.72-5.03 13.5-10.215 18.74-16.848a34.8 34.8 0 0 0 5.587-9.198h3.8c-.003.038-.003.076 0 .115.864 1.6 2.304 2.8 4.028 3.388s3.603.478 5.256-.28a.67.67 0 0 0 .372-.227c.095-.115.15-.258.155-.408a.67.67 0 0 0-.128-.417c-.088-.12-.213-.2-.356-.25zM2.315 15.9a40.7 40.7 0 0 1 3.08-1.246v3.2c-1.003-.616-2.063-1.247-3.08-1.963zm58.066-.344c-3.983 0-7.966.115-11.92.272a7.16 7.16 0 0 0-.129-2.12c-.2-.946-1.576-.53-1.433.387a7.94 7.94 0 0 1 0 2.493 7.42 7.42 0 0 1-.86 2.464c-.344.616.516 1.075.93.544a7.16 7.16 0 0 0 1.16-2.235c3.797.158 7.636.272 11.46.287a29.71 29.71 0 0 1-1.218 2.436c-5.043 9.17-13.754 15.63-21.877 21.863-6.948-5.888-13.395-11.9-18.224-19.742-.954-1.5-1.792-3.1-2.507-4.728l10.588-.115c.062.008.124.008.186 0a5.73 5.73 0 0 0 1.06 2.335c.387.5 1.003-.143.802-.616a6.23 6.23 0 0 1-.301-4.198.74.74 0 1 0-1.433-.387 5.11 5.11 0 0 0-.287 1.433h-.086a225.03 225.03 0 0 0-11.218-.1c-1.547-4.67-1.433-9.585 4.012-12.45 6.5-3.438 13.625-.143 16.762 6.046a.79.79 0 0 0 .946.43.56.56 0 0 0 .167.245c.077.065.168.1.267.13a.48.48 0 0 0 .295-.02.57.57 0 0 0 .245-.166c3.123-3.94 7.665-6.82 12.894-6.418a11.36 11.36 0 0 1 9.097 5.731c.998 1.9 1.22 4.134.616 6.203zm11.375-3.97a10.73 10.73 0 0 0-2.178 4.083.41.41 0 0 0 0 .086l-2.564-.1a5 5 0 0 1 4.742-4.054v-.014zm-4.413 6l2.693-.1a17.68 17.68 0 0 0 3.037 2.636c-1.096.143-2.2-.018-3.22-.465a6.03 6.03 0 0 1-2.51-2.071zM57 8.44a8.44 8.44 0 0 0-5.831-3.095c-.373 0-.444.573-.086.645 2.035.446 3.847 1.598 5.115 3.252.46.587 1.26-.23.802-.802zm-3.984-.673a6.36 6.36 0 0 0-1.834-.817l-2.235-.817a.32.32 0 0 0-.243 0c-.078.032-.14.094-.172.172a.32.32 0 0 0 0 .243c.032.078.094.14.172.172.688.387 1.433.702 2.135 1.046a6.42 6.42 0 0 0 1.877.76c.087-.002.17-.03.243-.08s.126-.12.158-.2.04-.17.022-.255a.44.44 0 0 0-.122-.224zM34.063 37.194c-1.732-1.5-3.386-3.088-4.957-4.756-.186-.186-.544 0-.387.3a38.88 38.88 0 0 0 4.628 5.186c.458.473 1.218-.33.716-.73zm2.037-.488l-3.825-3.553c-.258-.258-.745.086-.516.4 1.005 1.468 2.2 2.806 3.524 3.983.544.458 1.347-.244.817-.83z"/></svg>
